X: 5493
T: Bunny's Hat, The
R: reel
M: 4/4
K: Bminor
FABA cBAF|Bcde fedB|FABF A3F|E~F3 A~B3|
FABA cBAF|Bcde fedB|FABd c~A3|faec dBBA:|
FA (3Bcd efaf|efaf edcA|FA (3Bcd efaf|edcd AB2A|
FA (3Bcd e~f3|aefa bafe|d~B3 cAce|faec dBcA:|

